X:13
T:Little Billie Wilson
T:Billy Wilson
M:C
L:1/8
G:Key: A
Z:abc-transcription Josh Larios <hades@elsewhere.org>, 2017.02.14
K:A
[P:A]|: (3efg | "A"a2g2a2e2 | "D"fedf "A"edcA | "E"B2G2B2G2 | "A"ABcd e2 (3efg |
| "A"a2g2a2e2| "D"fedf "A"edcB | ABcd efed | "E"cABG"A"A2 :|
[P:B]|: A2 | "A"ABcd efed | cAcA "E"B2B2 | "A"ABcd efed | "E"cABG "A"A2 :|
[P:C]|: EF | "A"A2A2-AcBA | "D"F3AF2EF | "A"A2A2-ABcd | e2-ef ec-c2 |
| "E"B3c B2A2 | "D"F3AF2EF | "A"A2 AB ceaf | "E"ecBc"A"A2 :|

